src/main/resources/react/src/img/MySettings/location.svg

<svg width="12" height="16" viewBox="0 0 12 16" fill="none" xmlns="http://www.w3.org/2000/svg">
<path d="M11.2511 3.98046C11.1953 3.76842 11.08 3.53778 10.9944 3.34061C9.9714 0.881654 7.73192 0 5.92769 0C3.50965 0 0.846082 1.62195 0.492676 4.96256V5.64705C0.492676 5.67681 0.503836 5.92977 0.514996 6.05998C0.71588 7.65216 1.96954 9.34479 2.91072 10.937C3.91886 12.6445 4.96791 14.3222 6.00581 16C6.64566 14.9063 7.28551 13.794 7.91049 12.73C8.08161 12.4176 8.27877 12.1051 8.44989 11.8037C8.56522 11.6066 8.78098 11.4057 8.88142 11.2197C9.88956 9.37083 11.5152 7.50708 11.5152 5.67309V4.91792C11.5115 4.72075 11.266 4.0251 11.2511 3.98046ZM5.96861 7.41036C5.25808 7.41036 4.48059 7.05323 4.09742 6.07485C4.04162 5.91861 4.04534 5.60613 4.04534 5.57637V5.13368C4.04534 3.88374 5.10928 3.31457 6.03185 3.31457C7.17019 3.31457 8.04813 4.22599 8.04813 5.36432C8.04813 6.49894 7.10695 7.41036 5.96861 7.41036Z" fill="#12B6ED"/>
</svg>

<svg width="12" height="16" fill="none" xmlns="http://www.w3.org/2000/svg"><path d="M11.251 3.98c-.056-.212-.171-.442-.257-.64C9.971.883 7.732 0 5.928 0 3.51 0 .846 1.622.493 4.963v.684c0 .03.01.283.022.413.2 1.592 1.455 3.285 2.396 4.877C3.919 12.645 4.968 14.322 6.006 16c.64-1.094 1.28-2.206 1.904-3.27.172-.312.369-.625.54-.926.115-.197.331-.398.431-.584 1.009-1.85 2.634-3.713 2.634-5.547v-.755c-.004-.197-.249-.893-.264-.938zM5.97 7.41c-.71 0-1.488-.357-1.872-1.335-.055-.156-.052-.469-.052-.499v-.442c0-1.25 1.064-1.82 1.987-1.82 1.138 0 2.016.912 2.016 2.05 0 1.135-.941 2.046-2.08 2.046z" fill="#12B6ED"/></svg>
